templates/flag_icons/to.svg

<?xml version="1.0" encoding="UTF-8" standalone="no"?>
<svg width="23px" height="17px" viewBox="0 0 23 17" version="1.1" xmlns="http://www.w3.org/2000/svg" xmlns:xlink="http://www.w3.org/1999/xlink">
    <!-- Generator: Sketch 3.7.2 (28276) - http://www.bohemiancoding.com/sketch -->
    <title>TO</title>
    <desc>Created with Sketch.</desc>
    <defs>
        <linearGradient x1="50%" y1="0%" x2="50%" y2="100%" id="linearGradient-1">
            <stop stop-color="#FFFFFF" offset="0%"></stop>
            <stop stop-color="#F0F0F0" offset="100%"></stop>
        </linearGradient>
        <filter x="-50%" y="-50%" width="200%" height="200%" filterUnits="objectBoundingBox" id="filter-2">
            <feMorphology radius="0.25" operator="dilate" in="SourceAlpha" result="shadowSpreadOuter1"></feMorphology>
            <feOffset dx="0" dy="0" in="shadowSpreadOuter1" result="shadowOffsetOuter1"></feOffset>
            <feColorMatrix values="0 0 0 0 0   0 0 0 0 0   0 0 0 0 0  0 0 0 0.06 0" type="matrix" in="shadowOffsetOuter1" result="shadowMatrixOuter1"></feColorMatrix>
            <feMerge>
                <feMergeNode in="shadowMatrixOuter1"></feMergeNode>
                <feMergeNode in="SourceGraphic"></feMergeNode>
            </feMerge>
        </filter>
        <rect id="path-3" x="0" y="0" width="21" height="15" rx="1.5"></rect>
        <filter x="-50%" y="-50%" width="200%" height="200%" filterUnits="objectBoundingBox" id="filter-5">
            <feOffset dx="0" dy="0.5" in="SourceAlpha" result="shadowOffsetOuter1"></feOffset>
            <feGaussianBlur stdDeviation="0.5" in="shadowOffsetOuter1" result="shadowBlurOuter1"></feGaussianBlur>
            <feColorMatrix values="0 0 0 0 0   0 0 0 0 0   0 0 0 0 0  0 0 0 0.16 0" type="matrix" in="shadowBlurOuter1"></feColorMatrix>
        </filter>
        <linearGradient x1="50%" y1="0%" x2="50%" y2="100%" id="linearGradient-6">
            <stop stop-color="#E20F1A" offset="0%"></stop>
            <stop stop-color="#C00711" offset="100%"></stop>
        </linearGradient>
        <rect id="path-7" x="0" y="0" width="12" height="8"></rect>
        <filter x="-50%" y="-50%" width="200%" height="200%" filterUnits="objectBoundingBox" id="filter-8">
            <feMorphology radius="0.25" operator="dilate" in="SourceAlpha" result="shadowSpreadOuter1"></feMorphology>
            <feOffset dx="0" dy="0" in="shadowSpreadOuter1" result="shadowOffsetOuter1"></feOffset>
            <feColorMatrix values="0 0 0 0 0   0 0 0 0 0   0 0 0 0 0  0 0 0 0.06 0" type="matrix" in="shadowOffsetOuter1"></feColorMatrix>
        </filter>
        <linearGradient x1="50%" y1="0%" x2="50%" y2="100%" id="linearGradient-9">
            <stop stop-color="#DF0F1B" offset="0%"></stop>
            <stop stop-color="#C00711" offset="100%"></stop>
        </linearGradient>
    </defs>
    <g id="Flag-Kit" stroke="none" stroke-width="1" fill="none" fill-rule="evenodd">
        <g id="TO">
            <g id="BF-Copy-5" filter="url(#filter-2)" transform="translate(1.000000, 1.000000)">
                <mask id="mask-4" fill="white">
                    <use xlink:href="#path-3"></use>
                </mask>
                <g id="Mask">
                    <use fill="black" fill-opacity="1" filter="url(#filter-5)" xlink:href="#path-3"></use>
                    <use fill="url(#linearGradient-1)" fill-rule="evenodd" xlink:href="#path-3"></use>
                </g>
                <rect id="Mask-Copy" fill="url(#linearGradient-6)" mask="url(#mask-4)" x="0" y="0" width="21" height="15"></rect>
                <g id="Rectangle-2" mask="url(#mask-4)">
                    <use fill="black" fill-opacity="1" filter="url(#filter-8)" xlink:href="#path-7"></use>
                    <use fill="url(#linearGradient-1)" fill-rule="evenodd" xlink:href="#path-7"></use>
                </g>
                <path d="M7,3 L7,1.2578125 C7,1.10414124 6.89020264,1 6.75476074,1 L5.24523926,1 C5.10752869,1 5,1.11542659 5,1.2578125 L5,3 L3.2578125,3 C3.10414124,3 3,3.10979736 3,3.24523926 L3,4.75476074 C3,4.89247131 3.11542659,5 3.2578125,5 L5,5 L5,6.7421875 C5,6.89585876 5.10979736,7 5.24523926,7 L6.75476074,7 C6.89247131,7 7,6.88457341 7,6.7421875 L7,5 L8.7421875,5 C8.89585876,5 9,4.89020264 9,4.75476074 L9,3.24523926 C9,3.10752869 8.88457341,3 8.7421875,3 L7,3 Z" id="Rectangle-1703" fill="url(#linearGradient-9)" mask="url(#mask-4)"></path>
                <rect id="Depth" mask="url(#mask-4)" x="0" y="0" width="21" height="15" rx="1.5"></rect>
            </g>
        </g>
    </g>
</svg>

<svg width="23" height="17" viewBox="0 0 23 17" xmlns="http://www.w3.org/2000/svg" xmlns:xlink="http://www.w3.org/1999/xlink"><title>TO</title><defs><linearGradient x1="50%" y1="0%" x2="50%" y2="100%" id="d"><stop stop-color="#FFF" offset="0%"/><stop stop-color="#F0F0F0" offset="100%"/></linearGradient><filter x="-50%" y="-50%" width="200%" height="200%" filterUnits="objectBoundingBox" id="a"><feMorphology radius=".25" operator="dilate" in="SourceAlpha" result="shadowSpreadOuter1"/><feOffset in="shadowSpreadOuter1" result="shadowOffsetOuter1"/><feColorMatrix values="0 0 0 0 0 0 0 0 0 0 0 0 0 0 0 0 0 0 0.06 0" in="shadowOffsetOuter1" result="shadowMatrixOuter1"/><feMerge><feMergeNode in="shadowMatrixOuter1"/><feMergeNode in="SourceGraphic"/></feMerge></filter><rect id="b" width="21" height="15" rx="1.5"/><filter x="-50%" y="-50%" width="200%" height="200%" filterUnits="objectBoundingBox" id="c"><feOffset dy=".5" in="SourceAlpha" result="shadowOffsetOuter1"/><feGaussianBlur stdDeviation=".5" in="shadowOffsetOuter1" result="shadowBlurOuter1"/><feColorMatrix values="0 0 0 0 0 0 0 0 0 0 0 0 0 0 0 0 0 0 0.16 0" in="shadowBlurOuter1"/></filter><linearGradient x1="50%" y1="0%" x2="50%" y2="100%" id="e"><stop stop-color="#E20F1A" offset="0%"/><stop stop-color="#C00711" offset="100%"/></linearGradient><path id="h" d="M0 0h12v8H0z"/><filter x="-50%" y="-50%" width="200%" height="200%" filterUnits="objectBoundingBox" id="g"><feMorphology radius=".25" operator="dilate" in="SourceAlpha" result="shadowSpreadOuter1"/><feOffset in="shadowSpreadOuter1" result="shadowOffsetOuter1"/><feColorMatrix values="0 0 0 0 0 0 0 0 0 0 0 0 0 0 0 0 0 0 0.06 0" in="shadowOffsetOuter1"/></filter><linearGradient x1="50%" y1="0%" x2="50%" y2="100%" id="i"><stop stop-color="#DF0F1B" offset="0%"/><stop stop-color="#C00711" offset="100%"/></linearGradient></defs><g filter="url(#a)" transform="translate(1 1)" fill="none" fill-rule="evenodd"><mask id="f" fill="#fff"><use xlink:href="#b"/></mask><use fill="#000" filter="url(#c)" xlink:href="#b"/><use fill="url(#d)" xlink:href="#b"/><path fill="url(#e)" mask="url(#f)" d="M0 0h21v15H0z"/><g mask="url(#f)"><use fill="#000" filter="url(#g)" xlink:href="#h"/><use fill="url(#d)" xlink:href="#h"/></g><path d="M7 3V1.26C7 1.1 6.89 1 6.75 1h-1.5a.25.25 0 0 0-.25.26V3H3.26C3.1 3 3 3.11 3 3.25v1.5c0 .14.12.25.26.25H5v1.74c0 .16.11.26.25.26h1.5C6.9 7 7 6.88 7 6.74V5h1.74C8.9 5 9 4.89 9 4.75v-1.5A.25.25 0 0 0 8.74 3H7z" fill="url(#i)" mask="url(#f)"/><rect mask="url(#f)" width="21" height="15" rx="1.5"/></g></svg>
